emoticon-confused-outline.svg

<svg fill="currentColor" viewBox="0 0 24 24"><path d="M20 12a8 8 0 1 0-8 8 8 8 0 0 0 8-8m2 0A10 10 0 1 1 12 2a10 10 0 0 1 10 10m-6.5-4A1.5 1.5 0 1 1 14 9.5 1.54 1.54 0 0 1 15.5 8M10 9.5A1.5 1.5 0 1 1 8.5 8 1.54 1.54 0 0 1 10 9.5m7 5.5h-4a4 4 0 0 0-3.47 2L7.8 16a6 6 0 0 1 5.2-3h4Z"/></svg>

<svg  viewBox="0 0 24 24" fill="currentColor"><path  d="M20 12A8 8 0 1 0 12 20A8 8 0 0 0 20 12M22 12A10 10 0 1 1 12 2A10 10 0 0 1 22 12M15.5 8A1.5 1.5 0 1 1 14 9.5A1.54 1.54 0 0 1 15.5 8M10 9.5A1.5 1.5 0 1 1 8.5 8A1.54 1.54 0 0 1 10 9.5M17 15H13A4 4 0 0 0 9.53 17L7.8 16A6 6 0 0 1 13 13H17Z"/></svg>
